img/icons_services/Protection.svg

<svg width="64" height="64" viewBox="0 0 64 64" fill="none" xmlns="http://www.w3.org/2000/svg">
<path d="M41.2317 37.6961C43.5839 37.6961 45.9096 38.2844 47.9577 39.3974C48.3296 39.5979 48.6709 39.8368 49.0194 40.0667C52.3807 33.4869 54.1545 26.5278 54.1545 19.7388C54.1545 19.3573 54.1545 18.9634 54.1423 18.5696C54.1177 18.0158 53.7238 17.5358 53.1699 17.4127C45.7361 15.7881 39.0038 11.7634 33.7115 5.78193L32.9238 4.88342C32.6899 4.61268 32.3577 4.465 32.0007 4.465C31.6192 4.41579 31.3238 4.60036 31.0899 4.85885L29.8838 6.1881C24.8623 11.7142 18.5361 15.5296 11.5946 17.2281L10.7946 17.425C10.253 17.5481 9.8715 18.0281 9.85918 18.5819C9.41612 35.8865 19.6315 48.3296 24.0377 52.8834C25.2306 54.1082 26.5606 55.3256 27.8253 56.3319C27.3509 54.9011 27.0779 53.3957 27.0779 51.8499C27.0779 44.0452 33.427 37.6961 41.2317 37.6961Z" fill="url(#paint0_linear_22728_12641)"/>
<path d="M46.7822 41.5593C45.0837 40.6363 43.1637 40.1562 41.2314 40.1562C34.7822 40.1562 29.5391 45.3993 29.5391 51.8486C29.5391 54.027 30.1299 56.1562 31.2622 57.9778C33.416 61.4609 37.133 63.5409 41.2314 63.5409C47.6683 63.5409 52.9237 58.2978 52.9237 51.8486C52.9237 47.5409 50.5729 43.6024 46.7822 41.5593ZM47.2196 50.2918L38.0747 57.4084L34.9527 52.5249C34.5862 51.9522 34.7538 51.1914 35.3265 50.8254C35.8999 50.4588 36.6613 50.6277 37.0261 51.1992L38.6937 53.8074L45.7076 48.3495C46.243 47.9318 47.0171 48.0273 47.4347 48.5646C47.8524 49.1013 47.7556 49.8747 47.2196 50.2918Z" fill="url(#paint1_linear_22728_12641)"/>
<defs>
<linearGradient id="paint0_linear_22728_12641" x1="31.9999" y1="4.45703" x2="31.9999" y2="56.3319" gradientUnits="userSpaceOnUse">
<stop stop-color="#EF8080"/>
<stop offset="1" stop-color="#F0145A"/>
</linearGradient>
<linearGradient id="paint1_linear_22728_12641" x1="41.2314" y1="40.1562" x2="41.2314" y2="63.5409" gradientUnits="userSpaceOnUse">
<stop stop-color="#EF8080"/>
<stop offset="1" stop-color="#F0145A"/>
</linearGradient>
</defs>
</svg>

<svg width="64" height="64" fill="none" xmlns="http://www.w3.org/2000/svg"><path d="M41.232 37.696c2.352 0 4.678.588 6.726 1.701.372.2.713.44 1.061.67 3.362-6.58 5.136-13.54 5.136-20.328 0-.382 0-.776-.013-1.17a1.244 1.244 0 0 0-.972-1.156c-7.434-1.625-14.166-5.65-19.459-11.631l-.787-.899A1.207 1.207 0 0 0 32 4.465c-.382-.05-.677.135-.911.394l-1.206 1.33c-5.022 5.525-11.348 9.34-18.29 11.04l-.8.196a1.21 1.21 0 0 0-.935 1.157c-.443 17.304 9.772 29.748 14.179 34.301a41.698 41.698 0 0 0 3.787 3.449 14.227 14.227 0 0 1-.747-4.482c0-7.805 6.349-14.154 14.154-14.154Z" fill="url(#a)"/><path d="M46.782 41.56a11.654 11.654 0 0 0-5.55-1.404c-6.45 0-11.693 5.243-11.693 11.693 0 2.178.59 4.307 1.723 6.129 2.154 3.483 5.871 5.563 9.97 5.563 6.436 0 11.692-5.243 11.692-11.692 0-4.308-2.351-8.247-6.142-10.29Zm.438 8.732-9.145 7.116-3.122-4.883a1.23 1.23 0 1 1 2.073-1.326l1.668 2.608 7.014-5.458a1.23 1.23 0 1 1 1.512 1.943Z" fill="url(#b)"/><defs><linearGradient id="a" x1="32" y1="4.457" x2="32" y2="56.332" gradientUnits="userSpaceOnUse"><stop stop-color="#EF8080"/><stop offset="1" stop-color="#F0145A"/></linearGradient><linearGradient id="b" x1="41.231" y1="40.156" x2="41.231" y2="63.541" gradientUnits="userSpaceOnUse"><stop stop-color="#EF8080"/><stop offset="1" stop-color="#F0145A"/></linearGradient></defs></svg>
